X: 22103
T: Koadhouarn
R: reel
M: 4/4
K: Bminor
B2Bc A2AB|G2GE FGFE|B2BB AGAB|GBGE F2 E/F/G/A/|
BABc A2AB|G2GE FGFE|B2BB AGAB|GBGE F3G||
EAGF E2GA|B2AB GAB2|EAGF E2GA|BEFG E3B|
BAGF EFGA|B2AB GAB2|EAGF E2GA|BEFG E4||

